assets/svg/coin_icons/Bitcoin.svg

<svg fill="none" height="24" viewBox="0 0 24 24" width="24" xmlns="http://www.w3.org/2000/svg"><path d="m23.6408 14.9029c-1.6029 6.4286-8.1147 10.3409-14.54478 8.7378-6.42744-1.6027-10.34023-8.1141-8.736559-14.54232 1.602169-6.42931 8.113989-10.34202 14.542139-8.739285 6.4297 1.602735 10.3421 8.114915 8.7392 14.543805z" fill="#f7931a"/><path d="m17.2896 10.2905c.2389-1.59677-.977-2.45514-2.6395-3.02776l.5393-2.16298-1.3168-.32812-.525 2.10598c-.3462-.08625-.7017-.16762-1.055-.24825l.5288-2.11985-1.316-.32812-.5397 2.16223c-.2866-.06525-.5678-.12975-.8409-.19763l.0015-.00675-1.8159-.45337-.35029 1.40624s.97698.22387.95635.23774c.53331.13313.62969.486.61357.76575l-.61432 2.46409c.03675.0094.08439.0229.13689.0439-.04388-.0109-.09076-.0229-.13914-.0345l-.86109 3.4518c-.06526.162-.23065.405-.60344.3128.01313.0191-.9571-.2389-.9571-.2389l-.6537 1.5071 1.71356.4271c.31879.0799.63119.1635.93872.2423l-.54493 2.1877 1.31527.3281.53968-2.1645c.35927.0975.70807.1875 1.04937.2723l-.5378 2.1543 1.3167.3282.545-2.1836c2.2453.4248 3.9338.2535 4.6445-1.7771.5727-1.635-.0285-2.5781-1.2099-3.1931.8603-.1984 1.5084-.7643 1.6813-1.9331zm-3.0086 4.2183c-.4069 1.635-3.1601.7511-4.0526.5295l.723-2.8984c.8926.2228 3.7549.6638 3.3296 2.3689zm.4073-4.242c-.3713 1.4873-2.6628.7317-3.4061.5464l.6556-2.62872c.7433.18525 3.1372.531 2.7505 2.08232z" fill="#fff"/></svg>

<svg width="24" height="24" viewBox="0 0 24 24" fill="none" xmlns="http://www.w3.org/2000/svg">
<path d="M23.6408 14.9029C22.0379 21.3315 15.5261 25.2438 9.09602 23.6407C2.66858 22.038 -1.24421 15.5266 0.359461 9.09838C1.96163 2.66907 8.47345 -1.24364 14.9016 0.359095C21.3313 1.96183 25.2437 8.47401 23.6408 14.9029Z" fill="#F7931A"/>
<path d="M17.2896 10.2905C17.5285 8.69373 16.3126 7.83536 14.6501 7.26274L15.1894 5.09976L13.8726 4.77164L13.3476 6.87762C13.0014 6.79137 12.6459 6.71 12.2926 6.62937L12.8214 4.50952L11.5054 4.1814L10.9657 6.34363C10.6791 6.27838 10.3979 6.21388 10.1248 6.146L10.1263 6.13925L8.3104 5.68588L7.96011 7.09212C7.96011 7.09212 8.93709 7.31599 8.91646 7.32986C9.44977 7.46299 9.54615 7.81586 9.53003 8.09561L8.91571 10.5597C8.95246 10.5691 9.0001 10.5826 9.0526 10.6036C9.00872 10.5927 8.96184 10.5807 8.91346 10.5691L8.05237 14.0209C7.98711 14.1829 7.82172 14.4259 7.44893 14.3337C7.46206 14.3528 6.49183 14.0948 6.49183 14.0948L5.83813 15.6019L7.55169 16.029C7.87048 16.1089 8.18288 16.1925 8.49041 16.2713L7.94548 18.459L9.26075 18.7871L9.80043 16.6226C10.1597 16.7201 10.5085 16.8101 10.8498 16.8949L10.312 19.0492L11.6287 19.3774L12.1737 17.1938C14.419 17.6186 16.1075 17.4473 16.8182 15.4167C17.3909 13.7817 16.7897 12.8386 15.6083 12.2236C16.4686 12.0252 17.1167 11.4593 17.2896 10.2905V10.2905ZM14.281 14.5088C13.8741 16.1438 11.1209 15.2599 10.2284 15.0383L10.9514 12.1399C11.844 12.3627 14.7063 12.8037 14.281 14.5088V14.5088ZM14.6883 10.2668C14.317 11.7541 12.0255 10.9985 11.2822 10.8132L11.9378 8.18448C12.6811 8.36973 15.075 8.71548 14.6883 10.2668V10.2668Z" fill="white"/>
</svg>
